X:0023
T:The Miners of Wicklow.
M:6/8
L:1/8
Q:3/8=124
V:1 midi program 1 74
I: :: ::
Z:Jack Campin * www.campin.me.uk * 2009
K:D
d|F2A A2=c|BGB AFA| BGE      EFG    |AFD DED|
  F2A A2=c|BGB AFA|(B/c/dB) (c/d/ec)|d3  d2:|
g|fdf fdf |ece ece| fdf      fdf    |g3  a2g|
  fdf fdf |ecA ABA|(B/c/dB) (c/d/ec)|d3  d2:|
<end>
<start>
